X:3011
T:Christmas day i'da morning
R:Other
O:Shetland
M:12/8
K:D
f2d f3 e2d c2A|BG2 d2c B2G G3|\
e2f g2f e2d c2B|ABA ABc d3 d3:|
K:AMix
|:e3 (4edef g3 B3|A2F A2A B2c d2B|\
e3 (4edef g3 B3|ABe d2B A3 A3:|


